X: 1
T:Angle Cain Tune
M:2/4
L:1/16
C:Trad.
S:Cyril Stinnett
R:Reel
Q:100
A:Missouri
Z:B. Shull, trans.; R.P. LaVaque, ABCs
K:C
G(B|c2) G2 E2 G2| (cBc)d e2d(c|B2)G(A B2) d2|(g^fga g=fed|!
c2 G2 E2 G2|(cBc)d e2d(c|B2) G2 (B2 d2)|c3 c c2:|!
|: (ef|g2) ^f2 (g2 a2)|g4 e2d(c|B2) G2 (B2 d2)|(g^fg)(a g=f)e(f|!
 g2) ^f2 (g2 a2)|g4 e2d(c|B2) G2 (B2 d2)|c3 c c2:|

